assets/Man tipping hand/Medium-Light/Flat/man_tipping_hand_flat_medium-light.svg

<svg width="32" height="32" viewBox="0 0 32 32" fill="none" xmlns="http://www.w3.org/2000/svg">
<path d="M8 12.8848C8 13.9894 7.10457 14.8848 6 14.8848C4.89543 14.8848 4 13.9894 4 12.8848C4 11.7803 4.89543 10.8848 6 10.8848C7.10457 10.8848 8 11.7803 8 12.8848Z" fill="#E4B29A"/>
<path d="M20 13C20 14.1046 19.1046 15 18 15C16.8954 15 16 14.1046 16 13C16 11.8954 16.8954 11 18 11C19.1046 11 20 11.8954 20 13Z" fill="#E4B29A"/>
<path d="M22 30V29.6161C22 24.311 17.5255 20 12 20C6.47447 20.0098 2 24.311 2 29.6161V30H22Z" fill="#00A6ED"/>
<path d="M12 23.5C10.619 23.5 9.5 22.2845 9.5 20.7845V19H14.5V20.7845C14.5 22.2845 13.381 23.5 12 23.5Z" fill="#E4B29A"/>
<path d="M18.7516 4.97666L18.2196 4.71066C17.8396 4.52066 17.4976 4.26732 17.1936 3.97599L16.155 2.93732C15.3696 2.15199 14.2169 1.89866 13.1783 2.25332C12.5069 2.49399 11.7723 2.49399 11.0883 2.25332C10.1636 1.79732 9.06162 1.97466 8.33962 2.70932L7.06028 3.97599C6.75628 4.27999 6.41428 4.52066 6.03428 4.71066L5.50228 4.97666C4.51428 5.47066 3.98228 6.54732 4.17228 7.63666L4.88162 11.5253C4.95762 11.918 5.28695 12.1967 5.67962 12.2093C9.60006 12.2093 13.3637 12.1967 18.5743 12.1967C18.9543 12.1713 19.2836 11.8927 19.347 11.5127L20.0563 7.62399C20.2716 6.54732 19.727 5.47066 18.7516 4.97666Z" fill="#FFF9BA"/>
<path d="M5.58698 10.8729C5.57513 10.7028 5.56347 10.5358 5.55291 10.3853C5.52758 10.018 5.67958 9.66332 5.94558 9.42265L6.18624 9.21999C6.50291 8.94132 6.68024 8.52332 6.68024 8.10532V7.00332C6.68024 6.69932 6.89558 6.42065 7.18691 6.34465C7.99758 6.14199 9.72024 5.79999 12.1142 5.79999C14.5082 5.79999 16.2309 6.14199 17.0416 6.34465C17.3456 6.42065 17.5482 6.68665 17.5482 7.00332V8.09265C17.5482 8.52332 17.7256 8.92865 18.0422 9.20732L18.3082 9.43532C18.577 9.66743 18.7162 10.0056 18.703 10.3589L18.2196 17.238C18.0043 19.442 16.2689 21.0127 14.1536 21.0127H10.1003C7.98492 21.0127 6.24959 19.442 6.03425 17.238L5.58698 10.8729Z" fill="#EEBFAA"/>
<path d="M25.0449 17.004C25.0155 16.9987 24.9857 16.9947 24.9578 16.9843L23.076 16.2829L21.0397 16.9863C21.0134 16.9954 20.9856 16.9989 20.9582 17.0035C20.84 17.0234 20.75 17.1262 20.75 17.25V19H25.25V17.25C25.25 17.1273 25.1615 17.0252 25.0449 17.004Z" fill="#00A6ED"/>
<path d="M26 30V18.91C26 18.41 25.6126 18 25.1402 18H20.8598C20.3874 18 20 18.41 20 18.91V30H26Z" fill="#3BC6F6"/>
<path d="M10.2705 13C10.615 13 10.8966 12.7027 10.7658 12.384C10.4806 11.6893 9.79741 11.2 8.99993 11.2C8.20245 11.2 7.51925 11.6893 7.2341 12.384C7.10328 12.7027 7.38484 13 7.72935 13H10.2705Z" fill="white"/>
<path d="M13.7779 13C13.4334 13 13.1519 12.7027 13.2827 12.384C13.5678 11.6893 14.251 11.2 15.0485 11.2C15.846 11.2 16.5292 11.6893 16.8144 12.384C16.9452 12.7027 16.6636 13 16.3191 13H13.7779Z" fill="white"/>
<path d="M8.09998 12.7C8.09998 12.8036 8.1131 12.9041 8.13778 13H10.2706C10.3408 13 10.4085 12.9876 10.4706 12.9652C10.4898 12.8799 10.5 12.7911 10.5 12.7C10.5 12.0373 9.96272 11.5 9.29998 11.5C8.63723 11.5 8.09998 12.0373 8.09998 12.7Z" fill="#7D4533"/>
<path d="M15.9485 12.7C15.9485 12.8036 15.9353 12.9041 15.9107 13H13.7779C13.7076 13 13.64 12.9876 13.5779 12.9652C13.5586 12.8799 13.5485 12.7911 13.5485 12.7C13.5485 12.0373 14.0857 11.5 14.7485 11.5C15.4112 11.5 15.9485 12.0373 15.9485 12.7Z" fill="#7D4533"/>
<path d="M8.58008 12.73C8.58008 12.8252 8.5978 12.9162 8.63013 13H10.03C10.0624 12.9162 10.0801 12.8252 10.0801 12.73C10.0801 12.3158 9.74429 11.98 9.33008 11.98C8.91586 11.98 8.58008 12.3158 8.58008 12.73Z" fill="black"/>
<path d="M15.4685 12.73C15.4685 12.8252 15.4508 12.9162 15.4185 13H14.0186C13.9862 12.9162 13.9685 12.8252 13.9685 12.73C13.9685 12.3158 14.3043 11.98 14.7185 11.98C15.1327 11.98 15.4685 12.3158 15.4685 12.73Z" fill="black"/>
<path d="M9.29995 12.1C9.29995 12.2657 9.16564 12.4 8.99995 12.4C8.83427 12.4 8.69995 12.2657 8.69995 12.1C8.69995 11.9343 8.83427 11.8 8.99995 11.8C9.16564 11.8 9.29995 11.9343 9.29995 12.1Z" fill="white"/>
<path d="M14.7485 12.1C14.7485 12.2657 14.8828 12.4 15.0485 12.4C15.2142 12.4 15.3485 12.2657 15.3485 12.1C15.3485 11.9343 15.2142 11.8 15.0485 11.8C14.8828 11.8 14.7485 11.9343 14.7485 12.1Z" fill="white"/>
<path d="M11.5545 12.3682L10.9312 14.5844C10.7967 15.0355 11.1145 15.5 11.5545 15.5H12.4956C12.9355 15.5 13.2533 15.0355 13.1189 14.5844L12.4833 12.3682C12.3367 11.8773 11.7012 11.8773 11.5545 12.3682Z" fill="#D19479"/>
<path d="M15.912 10.5901C16.0405 10.6789 16.179 10.7282 16.3274 10.7282C16.5351 10.7282 16.7329 10.6394 16.8614 10.4619C17.0889 10.1661 17.0296 9.7323 16.7329 9.50552C16.6898 9.47328 15.6521 8.69731 14.1613 8.87447C13.7954 8.92377 13.5283 9.25901 13.5679 9.6337C13.6173 9.99852 13.9536 10.2647 14.3295 10.2253C15.2493 10.1168 15.8724 10.5605 15.912 10.5901Z" fill="#A56953"/>
<path d="M7.23797 10.462C7.36655 10.6395 7.57425 10.7282 7.78195 10.7282C7.92042 10.7282 8.06878 10.6789 8.18746 10.5902C8.18836 10.5896 8.18981 10.5886 8.1918 10.5872C8.25527 10.5434 8.86848 10.1205 9.76995 10.2352C10.1458 10.2845 10.4821 10.0183 10.5315 9.64358C10.581 9.2689 10.3139 8.9238 9.93809 8.88436C8.44733 8.7072 7.40988 9.483 7.36677 9.51523C7.07006 9.74202 7.01049 10.1662 7.23797 10.462Z" fill="#A56953"/>
<path d="M11.9979 16.9893C11.3208 16.9893 10.7084 16.7585 10.2535 16.5176C10.0906 16.4313 9.91723 16.67 10.0433 16.8199C10.5098 17.3746 11.21 17.9993 11.9979 17.9993C12.838 17.9993 13.5121 17.4468 13.961 16.9035C14.0871 16.7509 13.881 16.4937 13.7154 16.5776C13.2804 16.7982 12.6966 16.9893 11.9979 16.9893Z" fill="#990838"/>
<path d="M22.7197 12.6412C23.0126 12.3483 23.4874 12.3483 23.7803 12.6412C24.0732 12.9341 24.0732 13.409 23.7803 13.7019L23.4822 14C23.4822 14 27.8736 13.3611 28.5247 13.25C28.8205 13.2055 29.2586 13.25 29.2586 13.6913C29.5972 13.7195 29.8846 13.9766 29.9374 14.3272C29.9793 14.606 29.862 14.872 29.6537 15.0329C29.615 15.3603 29.362 15.6346 29.0203 15.686L28.861 15.71C28.8774 16.0883 28.606 16.4257 28.2232 16.4833C28.2232 16.4833 25.5 16.75 25 17H21V15.5C21 15 21.2116 14.2884 21.5 14L22.7197 12.6412Z" fill="#EEBFAA"/>
<path d="M29.7658 14.9262C29.7332 14.9643 29.6968 14.9992 29.6571 15.0303L29.6339 14.8978C29.5774 14.5223 29.2272 14.2638 28.8517 14.3203L25.0093 14.8986C24.9752 14.9037 24.9433 14.8802 24.9382 14.8461C24.9331 14.8119 24.9566 14.7801 24.9907 14.775L28.8331 14.1967C29.2766 14.1299 29.6903 14.4351 29.7574 14.8784L29.7658 14.9262Z" fill="#D6A089"/>
<path d="M28.9471 15.6971L28.861 15.71C28.8625 15.7446 28.8616 15.7788 28.8584 15.8125L28.7926 15.6464L28.7915 15.6393C28.735 15.2638 28.3848 15.0053 28.0093 15.0618L25.7303 15.3939C25.6962 15.3989 25.6645 15.3752 25.6595 15.3411C25.6545 15.3069 25.6782 15.2752 25.7123 15.2702L27.9907 14.9382C28.432 14.8718 28.8438 15.1737 28.914 15.6135L28.9471 15.6971Z" fill="#D6A089"/>
<path d="M29.2439 13.5612C29.253 13.5979 29.2581 13.6384 29.2586 13.6831C29.2569 13.6857 29.2567 13.6884 29.2587 13.6913C29.2587 13.6913 24.5351 14.4451 24.501 14.4502C24.4669 14.4554 24.435 14.4319 24.4299 14.3977C24.4248 14.3636 24.4483 14.3318 24.4824 14.3266L29.2439 13.5612Z" fill="#D6A089"/>
</svg>

<svg xmlns="http://www.w3.org/2000/svg" width="32" height="32" fill="none"><path fill="#E4B29A" d="M8 12.885a2 2 0 1 1-4 0 2 2 0 0 1 4 0ZM20 13a2 2 0 1 1-4 0 2 2 0 0 1 4 0Z"/><path fill="#00A6ED" d="M22 30v-.384C22 24.311 17.526 20 12 20c-5.526.01-10 4.311-10 9.616V30h20Z"/><path fill="#E4B29A" d="M12 23.5c-1.381 0-2.5-1.215-2.5-2.715V19h5v1.785c0 1.5-1.119 2.715-2.5 2.715Z"/><path fill="#FFF9BA" d="m18.752 4.977-.532-.266a4.215 4.215 0 0 1-1.026-.735l-1.039-1.039a2.882 2.882 0 0 0-2.977-.684c-.671.241-1.406.241-2.09 0a2.369 2.369 0 0 0-2.748.456L7.06 3.976a3.902 3.902 0 0 1-1.026.735l-.532.266a2.481 2.481 0 0 0-1.33 2.66l.71 3.888a.837.837 0 0 0 .798.684c3.92 0 7.684-.012 12.894-.012a.836.836 0 0 0 .773-.684l.71-3.889a2.439 2.439 0 0 0-1.305-2.647Z"/><path fill="#EEBFAA" d="m5.587 10.873-.034-.488a1.194 1.194 0 0 1 .393-.962l.24-.203c.317-.279.494-.697.494-1.115V7.003c0-.304.216-.582.507-.658.81-.203 2.533-.545 4.927-.545 2.394 0 4.117.342 4.928.545a.666.666 0 0 1 .506.658v1.09c0 .43.178.836.494 1.114l.266.228c.269.232.408.57.395.924l-.483 6.879c-.216 2.204-1.951 3.775-4.066 3.775H10.1c-2.115 0-3.85-1.571-4.066-3.775l-.447-6.365Z"/><path fill="#00A6ED" d="M25.045 17.004c-.03-.005-.06-.01-.087-.02l-1.882-.701-2.036.703c-.027.01-.054.013-.082.017a.25.25 0 0 0-.208.247V19h4.5v-1.75a.25.25 0 0 0-.205-.246Z"/><path fill="#3BC6F6" d="M26 30V18.91c0-.5-.387-.91-.86-.91h-4.28c-.473 0-.86.41-.86.91V30h6Z"/><path fill="#fff" d="M10.27 13c.345 0 .627-.297.496-.616a1.909 1.909 0 0 0-3.532 0c-.13.319.15.616.495.616h2.542ZM13.778 13c-.345 0-.626-.297-.495-.616a1.909 1.909 0 0 1 3.531 0c.131.319-.15.616-.495.616h-2.541Z"/><path fill="#7D4533" d="M8.1 12.7c0 .104.013.204.038.3h2.133a.59.59 0 0 0 .2-.035A1.2 1.2 0 1 0 8.1 12.7ZM15.948 12.7c0 .104-.013.204-.037.3h-2.133a.59.59 0 0 1-.2-.035 1.2 1.2 0 1 1 2.37-.265Z"/><path fill="#000" d="M8.58 12.73c0 .095.018.186.05.27h1.4a.75.75 0 1 0-1.45-.27ZM15.469 12.73a.749.749 0 0 1-.05.27h-1.4a.75.75 0 1 1 1.45-.27Z"/><path fill="#fff" d="M9.3 12.1a.3.3 0 1 1-.6 0 .3.3 0 0 1 .6 0ZM14.748 12.1a.3.3 0 1 0 .6 0 .3.3 0 0 0-.6 0Z"/><path fill="#D19479" d="m11.555 12.368-.624 2.216c-.134.452.184.916.624.916h.94c.44 0 .758-.464.624-.916l-.636-2.216a.477.477 0 0 0-.928 0Z"/><path fill="#A56953" d="M15.912 10.59a.722.722 0 0 0 .415.138.648.648 0 0 0 .534-.266.686.686 0 0 0-.128-.956c-.043-.033-1.08-.809-2.572-.632a.693.693 0 0 0-.593.76c.05.365.386.63.761.591a2.343 2.343 0 0 1 1.583.365ZM7.238 10.462a.666.666 0 0 0 .544.266.694.694 0 0 0 .41-.14 2.326 2.326 0 0 1 1.578-.353.68.68 0 0 0 .761-.591.673.673 0 0 0-.593-.76c-1.49-.177-2.528.599-2.571.631a.675.675 0 0 0-.129.947Z"/><path fill="#990838" d="M11.998 16.99c-.677 0-1.29-.231-1.744-.472-.163-.087-.337.152-.21.302.466.555 1.166 1.18 1.954 1.18.84 0 1.514-.553 1.963-1.096.126-.153-.08-.41-.246-.326a3.791 3.791 0 0 1-1.717.411Z"/><path fill="#EEBFAA" d="M22.72 12.641a.75.75 0 1 1 1.06 1.06l-.298.299s4.392-.639 5.043-.75c.296-.044.734 0 .734.441a.75.75 0 0 1 .395 1.342.75.75 0 0 1-.634.653l-.159.024a.75.75 0 0 1-.638.773S25.5 16.75 25 17h-4v-1.5c0-.5.212-1.212.5-1.5l1.22-1.359Z"/><path fill="#D6A089" d="M29.766 14.926a.76.76 0 0 1-.109.104l-.023-.132a.687.687 0 0 0-.782-.578l-3.843.579a.063.063 0 0 1-.018-.124l3.842-.578a.812.812 0 0 1 .924.681l.009.048Z"/><path fill="#D6A089" d="m28.947 15.697-.086.013a.743.743 0 0 1-.003.102l-.065-.166-.002-.007a.687.687 0 0 0-.782-.577l-2.279.332a.062.062 0 0 1-.018-.124l2.279-.332a.813.813 0 0 1 .923.675l.033.084ZM29.244 13.561a.53.53 0 0 1 .015.13l-4.758.76a.062.062 0 1 1-.019-.124l4.762-.766Z"/></svg>
